images/ProcessIcons/Brand Building and Maintenance.svg

<svg width="24" height="24" viewBox="0 0 24 24" fill="none" xmlns="http://www.w3.org/2000/svg">
<path d="M12.9258 22.5C13.1055 22.7891 13.3086 23.0547 13.5352 23.2969C13.7617 23.5391 14.0039 23.7734 14.2617 24H1.5V0H14.5664L21 6.43359V12.2227C20.5078 12.0508 20.0078 11.9375 19.5 11.8828V7.5H13.5V1.5H3V22.5H12.9258ZM15 2.56641V6H18.4336L15 2.56641ZM13.5 14.2617C13.3984 14.3789 13.3008 14.4961 13.207 14.6133C13.1133 14.7305 13.0195 14.8594 12.9258 15H6V13.5H13.5V14.2617ZM6 18V16.5H12V17.2031C12 17.3125 11.9844 17.4414 11.9531 17.5898C11.9219 17.7383 11.8984 17.875 11.8828 18H6ZM16.5 10.5V12H6V10.5H16.5ZM22.5 18.75C22.5 18.9922 22.4766 19.2305 22.4297 19.4648L23.8828 20.0625L23.3086 21.457L21.8555 20.8477C21.582 21.2461 21.2461 21.582 20.8477 21.8555L21.457 23.3086L20.0625 23.8828L19.4648 22.4297C19.2305 22.4766 18.9922 22.5 18.75 22.5C18.5078 22.5 18.2695 22.4766 18.0352 22.4297L17.4375 23.8828L16.043 23.3086L16.6523 21.8555C16.2539 21.582 15.918 21.2461 15.6445 20.8477L14.1914 21.457L13.6172 20.0625L15.0703 19.4648C15.0234 19.2305 15 18.9922 15 18.75C15 18.5078 15.0234 18.2695 15.0703 18.0352L13.6172 17.4375L14.1914 16.043L15.6445 16.6523C15.7852 16.457 15.9375 16.2734 16.1016 16.1016C16.2656 15.9297 16.4492 15.7773 16.6523 15.6445L16.043 14.1914L17.4375 13.6172L18.0352 15.0703C18.2695 15.0234 18.5078 15 18.75 15C18.9922 15 19.2305 15.0234 19.4648 15.0703L20.0625 13.6172L21.457 14.1914L20.8477 15.6445C21.2461 15.918 21.582 16.2539 21.8555 16.6523L23.3086 16.043L23.8828 17.4375L22.4297 18.0352C22.4766 18.2695 22.5 18.5078 22.5 18.75ZM21 18.75C21 18.4375 20.9414 18.1445 20.8242 17.8711C20.707 17.5977 20.5469 17.3594 20.3438 17.1562C20.1406 16.9531 19.9023 16.793 19.6289 16.6758C19.3555 16.5586 19.0625 16.5 18.75 16.5C18.4375 16.5 18.1445 16.5586 17.8711 16.6758C17.5977 16.793 17.3594 16.9531 17.1562 17.1562C16.9531 17.3594 16.793 17.5977 16.6758 17.8711C16.5586 18.1445 16.5 18.4375 16.5 18.75C16.5 19.0625 16.5586 19.3555 16.6758 19.6289C16.793 19.9023 16.9531 20.1406 17.1562 20.3438C17.3594 20.5469 17.5977 20.707 17.8711 20.8242C18.1445 20.9414 18.4375 21 18.75 21C19.0625 21 19.3555 20.9414 19.6289 20.8242C19.9023 20.707 20.1406 20.5469 20.3438 20.3438C20.5469 20.1406 20.707 19.9023 20.8242 19.6289C20.9414 19.3555 21 19.0625 21 18.75Z" fill="black"/>
</svg>

<svg xmlns="http://www.w3.org/2000/svg" width="24" height="24" fill="none" xmlns:v="https://vecta.io/nano"><path d="M12.926 22.5c.18.289.383.555.609.797l.726.703H1.5V0h13.066L21 6.434v5.789a6.72 6.72 0 0 0-1.5-.34V7.5h-6v-6H3v21h9.926zM15 2.566V6h3.434L15 2.566zm-1.5 11.695l-.293.352-.281.387H6v-1.5h7.5v.762zM6 18v-1.5h6v.703a1.91 1.91 0 0 1-.047.387l-.07.41H6zm10.5-7.5V12H6v-1.5h10.5zm6 8.25c0 .242-.023.48-.07.715l1.453.598-.574 1.395-1.453-.609c-.273.398-.609.734-1.008 1.008l.609 1.453-1.395.574-.598-1.453c-.234.047-.473.07-.715.07s-.48-.023-.715-.07l-.598 1.453-1.395-.574.609-1.453c-.398-.273-.734-.609-1.008-1.008l-1.453.609-.574-1.395 1.453-.598c-.047-.234-.07-.473-.07-.715s.023-.48.07-.715l-1.453-.598.574-1.395 1.453.609a5.18 5.18 0 0 1 .457-.551 3.11 3.11 0 0 1 .551-.457l-.609-1.453 1.395-.574.598 1.453c.234-.047.473-.07.715-.07s.48.023.715.07l.598-1.453 1.395.574-.609 1.453c.398.273.734.609 1.008 1.008l1.453-.609.574 1.395-1.453.598c.047.234.07.473.07.715zm-1.5 0c0-.312-.059-.605-.176-.879a2.26 2.26 0 0 0-1.195-1.195c-.273-.117-.566-.176-.879-.176s-.605.059-.879.176a2.26 2.26 0 0 0-1.195 1.195c-.117.273-.176.566-.176.879s.059.605.176.879a2.26 2.26 0 0 0 1.195 1.195c.273.117.566.176.879.176s.605-.059.879-.176a2.26 2.26 0 0 0 1.195-1.195c.117-.273.176-.566.176-.879z" fill="#000"/></svg>
